css/img/rectangle-bw.svg

<?xml version="1.0" encoding="UTF-8" standalone="no"?>
<!-- Uploaded to: SVG Repo, www.svgrepo.com, Transformed by: SVG Repo Mixer Tools -->

<svg
   fill="#000000"
   width="241px"
   height="241px"
   viewBox="0 0 32 32"
   version="1.1"
   stroke="#000000"
   stroke-width="0.41600000000000004"
   id="svg9"
   sodipodi:docname="rectangle-bw.svg"
   inkscape:version="1.1.2 (0a00cf5339, 2022-02-04)"
   xmlns:inkscape="http://www.inkscape.org/namespaces/inkscape"
   xmlns:sodipodi="http://sodipodi.sourceforge.net/DTD/sodipodi-0.dtd"
   xmlns="http://www.w3.org/2000/svg"
   xmlns:svg="http://www.w3.org/2000/svg">
  <defs
     id="defs13">
    <filter
       style="color-interpolation-filters:sRGB;"
       inkscape:label="Greyscale"
       id="filter920"
       x="-0.0086666668"
       y="-0.0086666668"
       width="1.0173333"
       height="1.0173333">
      <feColorMatrix
         values="0.21 0.72 0.072 0.56 0 0.21 0.72 0.072 0.56 0 0.21 0.72 0.072 0.56 0 0 0 0 1 0 "
         id="feColorMatrix918" />
    </filter>
  </defs>
  <sodipodi:namedview
     id="namedview11"
     pagecolor="#ffffff"
     bordercolor="#666666"
     borderopacity="1.0"
     inkscape:pageshadow="2"
     inkscape:pageopacity="0.0"
     inkscape:pagecheckerboard="0"
     showgrid="false"
     inkscape:zoom="2.3236515"
     inkscape:cx="120.93036"
     inkscape:cy="120.5"
     inkscape:window-width="1920"
     inkscape:window-height="1012"
     inkscape:window-x="0"
     inkscape:window-y="0"
     inkscape:window-maximized="1"
     inkscape:current-layer="svg9" />
  <g
     id="SVGRepo_bgCarrier"
     stroke-width="0" />
  <g
     id="SVGRepo_tracerCarrier"
     stroke-linecap="round"
     stroke-linejoin="round" />
  <g
     id="SVGRepo_iconCarrier"
     style="filter:url(#filter920)">
    <title
       id="title4">square1</title>
    <path
       d="M28 24v4h-4v-1h-6v1h-4v-1h-6v1h-4v-4h1v-6h-1v-4h1v-6h-1v-4h4v1h6v-1h4v1h6v-1h4v4h-1v6h1v4h-1v6h1zM15 27h2v-2h-2v2zM5 27h2v-2h-2v2zM5 17h2v-2h-2v2zM7 5h-2v2h2v-2zM17 5h-2v2h2v-2zM24 7h-6v1h-4v-1h-6v1h-1v6h1v4h-1v6h1v1h6v-1h4v1h6v-1h1v-6h-1v-4h1v-6h-1v-1zM27 5h-2v2h2v-2zM27 15h-2v2h2v-2zM25 25v2h2v-2h-2z"
       id="path6" />
  </g>
</svg>

<?xml version="1.0" encoding="UTF-8" standalone="no"?>
<svg
   clip-rule="evenodd"
   fill-rule="evenodd"
   stroke-linejoin="round"
   stroke-miterlimit="2"
   viewBox="0 0 64 64"
   version="1.1"
   id="svg10"
   sodipodi:docname="rectangle-bw.svg"
   inkscape:version="1.1.2 (0a00cf5339, 2022-02-04)"
   xmlns:inkscape="http://www.inkscape.org/namespaces/inkscape"
   xmlns:sodipodi="http://sodipodi.sourceforge.net/DTD/sodipodi-0.dtd"
   xmlns="http://www.w3.org/2000/svg"
   xmlns:svg="http://www.w3.org/2000/svg"
   xmlns:rdf="http://www.w3.org/1999/02/22-rdf-syntax-ns#"
   xmlns:cc="http://creativecommons.org/ns#"
   xmlns:dc="http://purl.org/dc/elements/1.1/">
  <metadata
     id="metadata16">
    <rdf:RDF>
      <cc:Work
         rdf:about="">
        <dc:format>image/svg+xml</dc:format>
        <dc:type
           rdf:resource="http://purl.org/dc/dcmitype/StillImage" />
      </cc:Work>
    </rdf:RDF>
  </metadata>
  <defs
     id="defs14">
    <filter
       style="color-interpolation-filters:sRGB"
       inkscape:label="Greyscale"
       id="filter959"
       x="-0.041664941"
       y="-0.0625"
       width="1.0833316"
       height="1.125">
      <feColorMatrix
         values="0.21 0.72 0.072 0.62 0 0.21 0.72 0.072 0.62 0 0.21 0.72 0.072 0.62 0 0 0 0 1 0 "
         id="feColorMatrix957" />
    </filter>
    <filter
       style="color-interpolation-filters:sRGB"
       inkscape:label="Greyscale"
       id="filter939"
       x="0"
       y="0"
       width="1"
       height="1">
      <feColorMatrix
         values="0.21 0.72 0.072 0.62 0 0.21 0.72 0.072 0.62 0 0.21 0.72 0.072 0.62 0 0 0 0 1 0 "
         id="feColorMatrix937" />
    </filter>
    <filter
       style="color-interpolation-filters:sRGB"
       inkscape:label="Greyscale"
       id="filter1005"
       x="0"
       y="0"
       width="1"
       height="1">
      <feColorMatrix
         values="0.21 0.72 0.072 0.62 0 0.21 0.72 0.072 0.62 0 0.21 0.72 0.072 0.62 0 0 0 0 1 0 "
         id="feColorMatrix1003" />
    </filter>
    <filter
       style="color-interpolation-filters:sRGB"
       inkscape:label="Greyscale"
       id="filter851"
       x="0"
       y="0"
       width="1"
       height="1">
      <feColorMatrix
         values="0.21 0.72 0.072 0.532574 0 0.21 0.72 0.072 0.532574 0 0.21 0.72 0.072 0.532574 0 0 0 0 1 0 "
         id="feColorMatrix849" />
    </filter>
    <filter
       style="color-interpolation-filters:sRGB"
       inkscape:label="Greyscale"
       id="filter920"
       x="0"
       y="0"
       width="1"
       height="1">
      <feColorMatrix
         values="0.21 0.72 0.072 0.56 0 0.21 0.72 0.072 0.56 0 0.21 0.72 0.072 0.56 0 0 0 0 1 0 "
         id="feColorMatrix918" />
    </filter>
  </defs>
  <sodipodi:namedview
     pagecolor="#ffffff"
     bordercolor="#666666"
     borderopacity="1"
     objecttolerance="10"
     gridtolerance="10"
     guidetolerance="10"
     inkscape:pageopacity="0"
     inkscape:pageshadow="2"
     inkscape:window-width="1920"
     inkscape:window-height="1012"
     id="namedview12"
     showgrid="false"
     inkscape:zoom="1.7401456"
     inkscape:cx="-215.21188"
     inkscape:cy="-64.937095"
     inkscape:window-x="0"
     inkscape:window-y="0"
     inkscape:window-maximized="1"
     inkscape:current-layer="svg10"
     inkscape:pagecheckerboard="0" />
  <path
     d="m0 0h64v64h-64z"
     fill="none"
     id="path2" />
  <text
     xml:space="preserve"
     style="font-style:normal;font-weight:normal;font-size:40px;line-height:1.25;font-family:sans-serif;letter-spacing:0px;word-spacing:0px;fill:#000000;fill-opacity:1;stroke:none"
     x="17.627119"
     y="10.847458"
     id="text827"><tspan
       sodipodi:role="line"
       id="tspan825"
       x="17.627119"
       y="46.238083" /></text>
  <g
     id="SVGRepo_iconCarrier-1"
     style="filter:url(#filter920)"
     transform="matrix(2.0971576,0,0,2.0971576,-1.166643,-1.1879583)">
    <title
       id="title4-7">square1</title>
    <path
       d="m 28,24 v 4 h -4 v -1 h -6 v 1 H 14 V 27 H 8 v 1 H 4 V 24 H 5 V 18 H 4 V 14 H 5 V 8 H 4 V 4 h 4 v 1 h 6 V 4 h 4 v 1 h 6 V 4 h 4 v 4 h -1 v 6 h 1 v 4 h -1 v 6 z m -13,3 h 2 V 25 H 15 Z M 5,27 H 7 V 25 H 5 Z M 5,17 H 7 V 15 H 5 Z M 7,5 H 5 v 2 h 2 z m 10,0 h -2 v 2 h 2 z m 7,2 H 18 V 8 H 14 V 7 H 8 V 8 H 7 v 6 h 1 v 4 H 7 v 6 h 1 v 1 h 6 v -1 h 4 v 1 h 6 v -1 h 1 v -6 h -1 v -4 h 1 V 8 h -1 z m 3,-2 h -2 v 2 h 2 z m 0,10 h -2 v 2 h 2 z m -2,10 v 2 h 2 v -2 z"
       id="path6-5" />
  </g>
</svg>
